src/components/icons/InactiveHandshakeIcon.svg

<svg width="28" height="28" viewBox="0 0 28 28" fill="none" xmlns="http://www.w3.org/2000/svg">
<g clip-path="url(#clip0)">
<path d="M23.8997 16.8582C15.4372 8.39575 18.2893 11.2479 16.345 9.30363L13.8268 11.8218C12.7469 12.9017 10.9894 12.9017 9.9095 11.8218C8.82961 10.7419 8.82961 8.98443 9.9095 7.90454L13.6931 4.1209C12.5065 3.71227 11.218 3.7244 10.0482 4.12602L7.87306 1.97594C6.94583 1.04871 5.44249 1.04871 4.51536 1.97594L1.15767 5.33353C0.230493 6.26076 0.308382 7.81673 1.2355 8.74396L3.52559 11.0341C3.45092 11.6005 3.46595 12.1779 3.6337 12.7291C4.46985 12.6079 5.35031 12.8588 5.99219 13.5007C6.54052 14.0489 6.80735 14.7718 6.79897 15.492C7.51921 15.4836 8.24199 15.7505 8.79027 16.2988C9.3386 16.8471 9.60544 17.5698 9.59705 18.2901C10.3173 18.2818 11.0401 18.5486 11.5885 19.0969C12.1367 19.6452 16.6249 24.1334 16.6249 24.1334C17.0885 24.5969 17.8403 24.5969 18.3037 24.1334C18.7673 23.6698 18.7672 22.9182 18.3037 22.4546C14.4089 18.5597 15.8882 20.0391 15.2259 19.3767C14.9168 19.0676 14.9168 18.5665 15.2259 18.2574C15.535 17.9483 16.0361 17.9484 16.3451 18.2574C17.0061 18.9185 15.5595 17.4717 19.423 21.3353C19.8866 21.7988 20.6383 21.7988 21.1018 21.3353C21.5654 20.8717 21.5654 20.1199 21.1018 19.6564C17.207 15.7616 18.6863 17.2409 18.024 16.5786C17.7149 16.2695 17.7149 15.7683 18.024 15.4592C18.3331 15.1502 18.8341 15.1502 19.1432 15.4592C19.8043 16.1203 18.3575 14.6736 22.2211 18.5371C22.6846 19.0006 23.4364 19.0006 23.8999 18.5371C24.3634 18.0735 24.3634 17.3218 23.8997 16.8582Z" fill="#8DA2CB"/>
<path d="M4.87291 14.6198C4.40932 14.1563 3.6577 14.1563 3.19406 14.6198L1.51521 16.2987C1.05173 16.7623 1.05173 17.5139 1.51521 17.9775C1.9788 18.4411 2.73058 18.4411 3.19406 17.9775L4.87291 16.2987C5.33655 15.8352 5.33655 15.0835 4.87291 14.6198Z" fill="#6E7FA0"/>
<path d="M7.67104 17.418C7.20745 16.9544 6.45583 16.9544 5.99219 17.418L4.31345 19.0968C3.84986 19.5603 3.84986 20.3121 4.31345 20.7756C4.77693 21.2392 5.52861 21.2392 5.99219 20.7756L7.67104 19.0968C8.13463 18.6332 8.13463 17.8815 7.67104 17.418Z" fill="#6E7FA0"/>
<path d="M10.469 20.2161C10.0055 19.7525 9.25381 19.7525 8.79028 20.2161L7.11142 21.895C6.64784 22.3584 6.64784 23.1102 7.11142 23.5737C7.57491 24.0373 8.32658 24.0373 8.79017 23.5737L10.469 21.8948C10.9327 21.4314 10.9327 20.6796 10.469 20.2161Z" fill="#6E7FA0"/>
<path d="M13.2671 23.0141C12.8036 22.5505 12.0519 22.5505 11.5884 23.0141L9.90952 24.6929C9.44593 25.1564 9.44593 25.9081 9.90952 26.3717C10.3732 26.8353 11.1247 26.8353 11.5884 26.3717L13.2671 24.6929C13.7307 24.2293 13.7307 23.4777 13.2671 23.0141Z" fill="#6E7FA0"/>
<path d="M26.8046 5.52811L23.447 2.17052C22.5198 1.24329 21.0165 1.24329 20.0893 2.17052L17.7134 4.57752C16.6593 4.29898 15.4927 4.55986 14.6662 5.38626C14.4117 5.64081 14.3018 5.75065 14.2581 5.79442C14.2579 5.79453 14.2578 5.79469 14.2577 5.79479C14.25 5.80244 14.2481 5.80444 14.2442 5.80829C14.2381 5.81446 14.2344 5.81815 14.2343 5.81826C14.2343 5.81826 14.2327 5.81979 14.2329 5.81963C14.1212 5.93122 13.541 6.51145 11.0287 9.02372C10.5652 9.4873 10.5652 10.2391 11.0287 10.7026C11.4922 11.1662 12.2439 11.1662 12.7076 10.7026L15.2258 8.18429C15.8439 7.56619 16.8461 7.56619 17.4642 8.18429L23.62 14.34C24.4465 13.5135 24.7073 12.3469 24.4288 11.2928L26.8046 8.88582C27.7318 7.95864 27.7318 6.45534 26.8046 5.52811Z" fill="#6E7FA0"/>
</g>
<defs>
<clipPath id="clip0">
<rect x="0.5" y="0.5" width="27" height="27" fill="white"/>
</clipPath>
</defs>
</svg>

<svg width="28" height="28" fill="none" xmlns="http://www.w3.org/2000/svg"><g clip-path="url(#clip0)"><path d="M23.9 16.858l-7.555-7.554-2.518 2.518a2.773 2.773 0 01-3.918 0 2.773 2.773 0 010-3.917l3.784-3.784a5.617 5.617 0 00-3.645.005l-2.175-2.15a2.374 2.374 0 00-3.358 0L1.158 5.334c-.928.927-.85 2.483.078 3.41l2.29 2.29c-.075.566-.06 1.144.108 1.695a2.76 2.76 0 012.358.772c.549.548.815 1.27.807 1.991a2.759 2.759 0 012.798 2.798 2.76 2.76 0 011.992.807l5.036 5.036a1.187 1.187 0 001.679-1.678l-3.078-3.078a.791.791 0 011.12-1.12c.66.662-.787-.785 3.077 3.078a1.187 1.187 0 001.679-1.679l-3.078-3.077a.792.792 0 011.12-1.12l3.077 3.078a1.187 1.187 0 001.679-1.679z" fill="#8DA2CB"/><path d="M4.873 14.62a1.187 1.187 0 00-1.679 0l-1.679 1.679a1.187 1.187 0 001.68 1.678L4.872 16.3a1.187 1.187 0 000-1.68zM7.671 17.418a1.187 1.187 0 00-1.679 0l-1.679 1.679a1.187 1.187 0 001.68 1.679l1.678-1.68a1.187 1.187 0 000-1.678zM10.469 20.216a1.187 1.187 0 00-1.679 0l-1.679 1.679a1.187 1.187 0 101.68 1.679l1.678-1.68a1.187 1.187 0 000-1.678zM13.267 23.014a1.187 1.187 0 00-1.679 0L9.91 24.693a1.187 1.187 0 101.678 1.679l1.68-1.68a1.187 1.187 0 000-1.678zM26.805 5.528l-3.358-3.357a2.374 2.374 0 00-3.358 0l-2.376 2.407a3.152 3.152 0 00-3.047.808l-.408.408-.014.014-.01.01-.001.002-3.204 3.204a1.187 1.187 0 001.679 1.679l2.518-2.519a1.583 1.583 0 012.238 0l6.156 6.156a3.152 3.152 0 00.809-3.047l2.376-2.407a2.374 2.374 0 000-3.358z" fill="#6E7FA0"/></g><defs><clipPath id="clip0"><path fill="#fff" d="M.5.5h27v27H.5z"/></clipPath></defs></svg>
